X:1052
T:Trollpolska efter Einar Britt
S:Älvdalen
S:Efter Kristina Ståhl Cedervall
Z:[[http://www.bluerose.karenlmyers.org/IncipitsPolskaAlvdalen2.html|Karen Myers (#1052)]]
Z:Upptecknad 9/1994
M:3/4
L:1/8
R:Polska
O:Älvdalen, Dalarna
K:G
D>D G2 G2 | Ac B2 B2 | c>(e d>)(c B>)A | (3G2 B2 G2 D2 | D>D G2 G2 | Ac B2 B2 |
c>(e d>)(c B>)A | (3FAF G4 :: {B}d>(B d4) | {d}e2 d<(e d2) |
(3c2 B2 A2 (3G2 | B2 G2 D4 | {B}d>(B d4) | {d}e2 d<(e d2) | (3c2 B2 A2 (3FAF | G6 :|
